img/service-size-icon__14.svg

<svg width="26" height="25" viewBox="0 0 26 25" fill="none" xmlns="http://www.w3.org/2000/svg">
<path d="M23.1811 18.7893C22.1532 18.5184 20.7648 18.1228 18.9856 17.4379C18.963 17.298 18.8801 17.169 18.7478 17.0926L17.0565 16.1161C16.8236 15.9816 16.5246 16.0609 16.3895 16.2948L16.3716 16.3257C16.076 16.1874 15.7814 16.0452 15.4899 15.9001L15.5439 15.8065C15.6787 15.573 15.5986 15.2744 15.3651 15.1396L13.6738 14.163C13.4403 14.0283 13.1416 14.1083 13.0068 14.3418L12.9158 14.4994C12.3048 14.1374 11.6994 13.7569 11.1108 13.3643C10.8953 13.2205 10.6049 13.2702 10.4493 13.4775L8.10561 16.6025C7.83058 16.9693 7.39251 17.1883 6.93384 17.1883H5.37141C4.56373 17.1883 3.90663 16.5312 3.90663 15.7235C3.90663 15.4539 3.68804 15.2353 3.41837 15.2353H1.46534C1.22233 15.2353 1.01633 15.4139 0.982007 15.6544C-0.0564227 22.9357 0.000557219 22.4936 0.000557219 22.5592C0.000557219 23.9053 1.10798 25.0005 2.4692 25.0005H16.9734C19.491 25.0005 21.9969 24.3881 24.22 23.2295C24.7008 22.9793 24.9994 22.48 24.9994 21.9264V21.1491C24.9994 20.0645 24.277 19.0779 23.1811 18.7893ZM16.9911 17.2059L17.8368 17.6942L16.6159 19.8085C16.482 20.0407 16.1842 20.1227 15.9489 19.9869C15.7152 19.8521 15.6355 19.5539 15.7704 19.3201L16.9911 17.2059ZM14.4541 15.7412C14.1977 16.1852 12.9865 18.2829 12.7451 18.7011C12.6104 18.9345 12.3121 19.0147 12.078 18.8795C11.845 18.7451 11.7649 18.4459 11.8995 18.2127C12.1642 17.7543 13.2425 15.8868 13.6085 15.2529L14.4541 15.7412ZM1.8888 16.2118H2.97918C3.20603 17.3247 4.19251 18.1648 5.37146 18.1648H6.93389C7.69836 18.1648 8.4285 17.7997 8.88692 17.1883L10.9549 14.431C11.4384 14.7455 11.9313 15.0511 12.4276 15.3451L11.0537 17.7246C10.65 18.4244 10.8907 19.322 11.5899 19.7253C12.2902 20.1297 13.1858 19.8914 13.5909 19.1893L15.0008 16.7474C15.292 16.8929 15.5862 17.0356 15.8816 17.1745L14.9246 18.832C14.5202 19.5332 14.7595 20.4282 15.461 20.8329C16.1575 21.2346 17.0565 20.9993 17.4617 20.2967L18.595 18.3341C20.4373 19.0455 21.872 19.4542 22.9324 19.7336C23.2185 19.809 23.4697 19.9663 23.6593 20.1826C21.646 21.4194 19.3448 22.0709 16.974 22.0709H2.46924C1.92635 22.0709 1.42334 21.7705 1.16217 21.2985L1.8888 16.2118ZM24.0229 21.9264C24.0229 22.1116 23.9233 22.2831 23.7689 22.3635C21.6844 23.4498 19.3346 24.0239 16.9734 24.0239H2.46924C1.6435 24.0239 0.99436 23.3974 0.977466 22.5915L0.983716 22.5477C1.40518 22.865 1.92508 23.0475 2.46924 23.0475H16.974C19.4681 23.0475 21.8902 22.3773 24.0218 21.1043C24.0222 21.1192 24.023 21.1341 24.023 21.1491L24.0229 21.9264Z" fill="black"/>
<path d="M15.4297 11.7197C15.6994 11.7197 15.918 11.5011 15.918 11.2314C15.918 10.9618 15.6994 10.7432 15.4297 10.7432C15.16 10.7432 14.9414 10.9618 14.9414 11.2314C14.9414 11.5011 15.16 11.7197 15.4297 11.7197Z" fill="black"/>
<path d="M24.0213 2.37423C23.987 2.13371 23.781 1.95505 23.538 1.95505H21.585C21.3153 1.95505 21.0967 2.17365 21.0967 2.44331C21.0967 3.25099 20.4396 3.90809 19.6319 3.90809H18.0695C17.6108 3.90809 17.1728 3.68911 16.8977 3.32218L14.554 0.197321C14.3985 -0.0100424 14.1081 -0.059796 13.8925 0.084094C13.3039 0.476703 12.6985 0.857155 12.0875 1.21915L11.9966 1.06164C11.8616 0.827762 11.5626 0.748176 11.3296 0.882837L9.63824 1.85936C9.4047 1.99416 9.32473 2.29278 9.45949 2.52632L9.51354 2.61992C9.22297 2.76464 8.92841 2.90677 8.63179 3.04553L8.61392 3.01463C8.47892 2.7808 8.17995 2.70131 7.94691 2.83587L6.25558 3.81239C6.12326 3.88876 6.0404 4.01776 6.0178 4.15769C4.23858 4.84262 2.85012 5.23821 1.82238 5.50909C0.735319 5.79531 0.00390625 6.77491 0.00390625 7.86885V8.64616C0.00390625 9.19975 0.302574 9.69909 0.78307 9.94923C3.00636 11.1079 5.51211 11.7202 8.02942 11.7202H13.2358C13.5054 11.7202 13.724 11.5016 13.724 11.232C13.724 10.9623 13.5054 10.7437 13.2358 10.7437H8.02942C5.66859 10.7437 3.31889 10.1695 1.23417 9.08315C1.08003 9.00293 0.980425 8.83141 0.980425 8.64616C0.980425 8.64616 0.981157 7.83897 0.981597 7.82403C3.11319 9.09707 5.5353 9.7672 8.02942 9.7672H22.5341C23.0783 9.7672 23.5982 9.58469 24.0197 9.26742L24.0259 9.31127C24.0089 10.1171 23.3598 10.7437 22.5341 10.7437H17.6301C17.3604 10.7437 17.1418 10.9623 17.1418 11.232C17.1418 11.5016 17.3604 11.7202 17.6301 11.7202H22.5341C23.8953 11.7202 25.0027 10.6251 25.0027 9.27894C25.0027 9.21332 25.0603 9.65964 24.0213 2.37423ZM11.3948 1.97268C11.7618 2.60825 12.8388 4.47335 13.1038 4.93226C13.2384 5.16565 13.1583 5.46486 12.9252 5.59937C12.6917 5.73423 12.3931 5.6546 12.2582 5.42067C12.1187 5.17913 10.7859 2.87079 10.5492 2.46089L11.3948 1.97268ZM8.01229 3.92567L9.23289 6.03964C9.36745 6.27293 9.28733 6.57218 9.05443 6.70665C8.82104 6.84126 8.52183 6.76124 8.38727 6.52804L7.16652 4.41398L8.01229 3.92567ZM22.5341 8.79064H8.02938C5.65849 8.79064 3.35727 8.1391 1.34393 6.90229C1.53343 6.68619 1.78469 6.52873 2.07105 6.45334C3.13135 6.17386 4.56605 5.76519 6.40831 5.05379L7.54146 7.01616C7.94627 7.71798 8.84125 7.95684 9.54244 7.55241C10.2416 7.14872 10.4821 6.2512 10.0786 5.55152L9.12181 3.89427C9.41818 3.75488 9.71245 3.61226 10.0027 3.46719L11.4124 5.90878C11.8166 6.60948 12.7115 6.85039 13.4133 6.44514C14.1127 6.04169 14.3533 5.14412 13.9495 4.44415L12.5758 2.06482C13.0721 1.77093 13.5649 1.46533 14.0484 1.1507L16.1164 3.90799C16.5748 4.51949 17.305 4.88456 18.0695 4.88456H19.6319C20.8108 4.88456 21.7973 4.04446 22.0242 2.93152H23.1145L23.8412 8.01826C23.58 8.49021 23.077 8.79064 22.5341 8.79064Z" fill="black"/>
</svg>

<svg width="26" height="25" fill="none" xmlns="http://www.w3.org/2000/svg"><path d="M23.181 18.79a38.777 38.777 0 01-4.195-1.352.487.487 0 00-.238-.345l-1.692-.977a.488.488 0 00-.666.179l-.018.03a39.73 39.73 0 01-.882-.425l.054-.094a.488.488 0 00-.179-.666l-1.691-.977a.488.488 0 00-.667.179l-.091.157a40.07 40.07 0 01-1.805-1.135.488.488 0 00-.662.113l-2.343 3.125a1.472 1.472 0 01-1.172.586H5.37a1.466 1.466 0 01-1.464-1.464.488.488 0 00-.489-.489H1.465a.488.488 0 00-.483.42c-1.038 7.28-.981 6.839-.981 6.904C0 23.905 1.108 25 2.469 25h14.504c2.518 0 5.024-.612 7.247-1.77.48-.25.78-.75.78-1.304v-.777a2.439 2.439 0 00-1.819-2.36zm-6.19-1.584l.846.488-1.221 2.114a.488.488 0 11-.846-.488l1.221-2.114zm-2.537-1.465l-1.709 2.96a.488.488 0 11-.845-.488l1.708-2.96.846.488zm-12.565.47h1.09a2.446 2.446 0 002.392 1.954h1.563c.764 0 1.494-.365 1.953-.977l2.068-2.757c.483.315.976.62 1.473.914l-1.374 2.38a1.464 1.464 0 102.537 1.465L15 16.746c.291.146.585.289.88.427l-.956 1.658a1.464 1.464 0 102.537 1.465l1.133-1.963a39.674 39.674 0 004.337 1.4c.287.075.538.232.727.449a12.736 12.736 0 01-6.685 1.888H2.469a1.5 1.5 0 01-1.307-.773l.727-5.086zm22.134 5.715c0 .186-.1.357-.254.438a14.762 14.762 0 01-6.796 1.66H2.47c-.825 0-1.475-.627-1.492-1.433l.007-.043c.421.317.941.5 1.485.5h14.505c2.494 0 4.916-.67 7.048-1.944l.001.045v.777zM15.43 11.72a.488.488 0 100-.977.488.488 0 000 .977z" fill="#000"/><path d="M24.021 2.374a.488.488 0 00-.483-.419h-1.953a.488.488 0 00-.488.488c0 .808-.657 1.465-1.465 1.465h-1.563a1.47 1.47 0 01-1.171-.586L14.554.197a.488.488 0 00-.662-.113c-.588.393-1.194.773-1.804 1.135l-.091-.157a.488.488 0 00-.667-.18l-1.692.977a.488.488 0 00-.179.667l.055.094c-.291.145-.586.287-.882.426l-.018-.031a.488.488 0 00-.667-.18l-1.691.977a.487.487 0 00-.238.346 38.778 38.778 0 01-4.196 1.351A2.439 2.439 0 00.004 7.87v.777c0 .554.299 1.053.78 1.303a15.741 15.741 0 007.245 1.771h5.207a.488.488 0 000-.976H8.029c-2.36 0-4.71-.575-6.795-1.66a.492.492 0 01-.254-.438l.002-.822a13.708 13.708 0 007.047 1.943h14.505c.544 0 1.064-.182 1.486-.5l.006.044c-.017.806-.666 1.433-1.492 1.433H17.63a.488.488 0 100 .976h4.904c1.361 0 2.469-1.095 2.469-2.441 0-.066.057.38-.982-6.905zm-12.626-.401l1.709 2.96a.489.489 0 01-.846.488L10.55 2.46l.846-.488zM8.012 3.926l1.22 2.114a.489.489 0 01-.845.488l-1.22-2.114.845-.488zM22.534 8.79H8.03c-2.37 0-4.672-.652-6.685-1.889.19-.216.44-.373.727-.449 1.06-.28 2.495-.688 4.337-1.4l1.133 1.963a1.464 1.464 0 102.538-1.464l-.957-1.658c.296-.14.59-.282.88-.427l1.41 2.442a1.464 1.464 0 102.537-1.465l-1.373-2.38c.496-.293.989-.599 1.472-.913l2.068 2.757a2.453 2.453 0 001.954.977h1.562c1.179 0 2.165-.84 2.392-1.953h1.09l.727 5.086a1.501 1.501 0 01-1.307.773z" fill="#000"/></svg>
